icons/4_Outdated/2Checkout.svg

<svg width="1024" height="1024" viewBox="0 0 1024 1024" fill="none" xmlns="http://www.w3.org/2000/svg">
<g clip-path="url(#clip0_3_737)">
<path d="M512 1024C794.77 1024 1024 794.77 1024 512C1024 229.23 794.77 0 512 0C229.23 0 0 229.23 0 512C0 794.77 229.23 1024 512 1024Z" fill="#98DC9A"/>
<path d="M708.3 525.081C708.3 546.431 693.23 560.451 671.68 560.451C649.68 560.451 634.85 546.221 634.85 525.081C634.85 503.941 649.92 489.921 671.68 489.921C693.44 489.921 708.3 503.921 708.3 525.081ZM652.22 525.291C652.22 537.851 660.38 546.431 672.1 546.431C683.4 546.431 691.77 537.851 691.77 525.291C691.77 512.731 683.61 504.151 672.1 504.151C660.17 504.361 652.22 512.731 652.22 525.291ZM785.1 490.131V559.821H768.1V546.821C763.1 556.031 754.92 560.421 743.82 560.421C728.12 560.421 718.71 550.171 718.71 533.631V490.131H735.71V528.641C735.71 538.481 741.15 544.341 750.78 544.341C761.66 544.131 768.15 535.761 768.15 524.461V490.131H785.1ZM846.83 555.631C841.655 558.989 835.63 560.803 829.46 560.861C818.16 560.861 808.95 554.371 808.95 540.141V505.411H799.11L798.9 493.061H808.74V473.811H825.48V493.061H845.36V505.411H825.49V537.001C825.49 543.701 828.21 546.001 832.81 546.001C835.74 546.001 838.88 545.001 842.65 543.071L846.83 555.631ZM244.34 559.821H179.26V546.821L210 514.001C214.19 509.191 217.32 505.421 219.42 501.861C221.369 498.94 222.457 495.53 222.56 492.021C222.56 487.834 221.513 484.501 219.42 482.021C218.215 480.823 216.774 479.888 215.188 479.275C213.603 478.662 211.908 478.385 210.21 478.461C208.327 478.44 206.461 478.82 204.737 479.577C203.012 480.334 201.469 481.45 200.21 482.851C197.7 485.781 196.44 489.761 196.44 494.361H177.17C177.04 488.772 178.493 483.26 181.36 478.461C184.028 473.663 188.025 469.739 192.87 467.161C198.159 464.394 204.064 463.018 210.03 463.161C219.87 463.161 227.4 465.461 233.03 470.281C238.47 475.091 241.19 481.581 241.19 490.371C241.207 495.403 239.984 500.362 237.63 504.811C235.12 509.811 230.93 515.271 225.07 521.971L203.72 545.201H244.72V559.851L244.34 559.821ZM290 504.571C278.91 504.571 271.17 512.941 271.17 525.081C271.17 537.641 279.17 545.801 290 545.801C298 545.801 304.44 543.081 308.83 537.431L319.26 546.001C313.19 555.001 302.73 560.001 289.12 560.001C268.41 560.001 254 545.801 254 524.871C254 503.731 268.44 489.501 289.37 489.501C302.14 489.501 312.37 494.311 318.46 502.271L308.21 512.111C305.855 509.672 303.022 507.744 299.889 506.446C296.757 505.149 293.39 504.511 290 504.571ZM402.17 516.711V560.241H385.17V521.521C385.17 511.681 379.31 505.821 369.68 505.821C358.38 506.031 351.26 514.401 351.26 525.911V560.001H334.26V463.341H351.26V503.521C356.26 493.891 364.86 489.711 376.37 489.711C392.27 489.711 402.11 499.961 402.11 516.711M483.73 531.151H432.27C434.57 540.991 442.11 546.851 452.15 546.851C455.642 546.892 459.104 546.202 462.312 544.824C465.521 543.446 468.406 541.411 470.78 538.851L479.99 548.481C473.08 556.011 462.99 560.621 450.9 560.621C429.35 560.621 414.9 546.391 414.9 525.461C414.9 504.321 429.34 490.091 450.27 490.091C474.75 489.671 485.22 505.791 483.75 531.091M468.26 519.581C467.84 509.331 460.94 502.841 450.47 502.841C440.47 502.841 433.47 509.331 432.05 519.581H468.26ZM528.11 504.511C517.02 504.511 509.11 512.881 509.11 525.021C509.11 537.581 517.11 545.741 528.11 545.741C536.27 545.741 542.55 543.021 546.74 537.371L557.2 546.001C551.13 555.001 540.67 560.001 527.07 560.001C506.35 560.001 491.91 545.771 491.91 524.841C491.91 503.701 506.35 489.471 527.28 489.471C540.05 489.471 550.28 494.281 556.37 502.241L546.12 512.081C543.806 509.646 541.01 507.72 537.912 506.424C534.813 505.127 531.478 504.49 528.12 504.551M609.94 489.691L586.94 512.291L569.94 495.551V519.411L575.17 524.411L583.17 532.521L586.92 536.341L598.82 524.491L633.75 489.711L609.94 489.691ZM611.2 560.421H635.06L601.06 526.681L589.16 538.531L611.2 560.421ZM584.69 538.551L573 526.721L570 523.781V560.451H587V540.811L584.69 538.551ZM586.93 507.871V463.141H570V491.141L572.21 493.321L586.93 507.871Z" fill="white"/>
</g>
<defs>
<clipPath id="clip0_3_737">
<rect width="1024" height="1024" fill="white"/>
</clipPath>
</defs>
</svg>

<svg xmlns="http://www.w3.org/2000/svg" width="1024" height="1024" fill="none">
   <g clip-path="url(#a)">
      <path fill="#98DC9A" d="M512 1024c282.77 0 512-229.23 512-512S794.77 0 512 0 0 229.23 0 512s229.23 512 512 512Z"/>
      <path fill="#fff" d="M708.3 525.081c0 21.35-15.07 35.37-36.62 35.37-22 0-36.83-14.23-36.83-35.37 0-21.14 15.07-35.16 36.83-35.16 21.76 0 36.62 14 36.62 35.16Zm-56.08.21c0 12.56 8.16 21.14 19.88 21.14 11.3 0 19.67-8.58 19.67-21.14s-8.16-21.14-19.67-21.14c-11.93.21-19.88 8.58-19.88 21.14Zm132.88-35.16v69.69h-17v-13c-5 9.21-13.18 13.6-24.28 13.6-15.7 0-25.11-10.25-25.11-26.79v-43.5h17v38.51c0 9.84 5.44 15.7 15.07 15.7 10.88-.21 17.37-8.58 17.37-19.88v-34.33h16.95Zm61.73 65.5a32.47 32.47 0 0 1-17.37 5.23c-11.3 0-20.51-6.49-20.51-20.72v-34.73h-9.84l-.21-12.35h9.84v-19.25h16.74v19.25h19.88v12.35h-19.87v31.59c0 6.7 2.72 9 7.32 9 2.93 0 6.07-1 9.84-2.93l4.18 12.56Zm-602.49 4.19h-65.08v-13l30.74-32.82c4.19-4.81 7.32-8.58 9.42-12.14a18.719 18.719 0 0 0 3.14-9.84c0-4.187-1.047-7.52-3.14-10a12.283 12.283 0 0 0-9.21-3.56 13.245 13.245 0 0 0-10 4.39c-2.51 2.93-3.77 6.91-3.77 11.51h-19.27a29.659 29.659 0 0 1 4.19-15.9 28.475 28.475 0 0 1 11.51-11.3 35.198 35.198 0 0 1 17.16-4c9.84 0 17.37 2.3 23 7.12 5.44 4.81 8.16 11.3 8.16 20.09a30.655 30.655 0 0 1-3.56 14.44c-2.51 5-6.7 10.46-12.56 17.16l-21.35 23.23h41v14.65l-.38-.03Zm45.66-55.25c-11.09 0-18.83 8.37-18.83 20.51 0 12.56 8 20.72 18.83 20.72 8 0 14.44-2.72 18.83-8.37l10.43 8.57c-6.07 9-16.53 14-30.14 14-20.71 0-35.12-14.2-35.12-35.13 0-21.14 14.44-35.37 35.37-35.37 12.77 0 23 4.81 29.09 12.77l-10.25 9.84a24.717 24.717 0 0 0-18.21-7.54Zm112.17 12.14v43.53h-17v-38.72c0-9.84-5.86-15.7-15.49-15.7-11.3.21-18.42 8.58-18.42 20.09v34.09h-17v-96.66h17v40.18c5-9.63 13.6-13.81 25.11-13.81 15.9 0 25.74 10.25 25.74 27m81.62 14.44h-51.46c2.3 9.84 9.84 15.7 19.88 15.7a25.004 25.004 0 0 0 18.63-8l9.21 9.63c-6.91 7.53-17 12.14-29.09 12.14-21.55 0-36-14.23-36-35.16 0-21.14 14.44-35.37 35.37-35.37 24.48-.42 34.95 15.7 33.48 41m-15.49-11.51c-.42-10.25-7.32-16.74-17.79-16.74-10 0-17 6.49-18.42 16.74h36.21Zm59.85-15.07c-11.09 0-19 8.37-19 20.51 0 12.56 8 20.72 19 20.72 8.16 0 14.44-2.72 18.63-8.37l10.46 8.63c-6.07 9-16.53 14-30.13 14-20.72 0-35.16-14.23-35.16-35.16 0-21.14 14.44-35.37 35.37-35.37 12.77 0 23 4.81 29.09 12.77l-10.25 9.84a24.215 24.215 0 0 0-18-7.53m81.82-14.86-23 22.6-17-16.74v23.86l5.23 5 8 8.11 3.75 3.82 11.9-11.85 34.93-34.78-23.81-.02Zm1.26 70.73h23.86l-34-33.74-11.9 11.85 22.04 21.89Zm-26.51-21.87L573 526.721l-3-2.94v36.67h17v-19.64l-2.31-2.26Zm2.24-30.68v-44.73H570v28l2.21 2.18 14.72 14.55Z"/>
   </g>
   <defs>
      <clipPath id="a">
         <path fill="#fff" d="M0 0h1024v1024H0z"/>
      </clipPath>
   </defs>
</svg>
